X:9719
T:Lloraba una Cabraliega (CT 069)
C:Tradicional
S:Música Tradicional Asturiana, (C) Tello & Tito. Asturies, 2001.
S:http://pagina.de/MusTradAst <telloytito@asturies.org>
N:Variante de CT 069, transcrita en Llanuces, concejo de Quirós.
O:Llanuces (Quirós)
A:Asturies
Z:Cancioneru de Torner 069
M:3/4
L:1/4
Q:1/4=120
W:Cuando salí de Cabrales
W:lloraba una cabraliega.
W:Ella lloraba por mí
W:y yo lloraba por ella.
W:
W:Nun llores neña, nun llores,
W:nun llores nin tengas pena,
W:qu'en cumpliendo los tres años
W:caso contigo, neña.
K:C
_B|:d2 _B|d d d|e3/2 (3d/4e/4d/4 c-|
c _B A|G3|_B _B d|c2 A3/4_B/8A/8|G3-|G z _B:|


